!!!OTL: ES LAGEN ZWEI VERBORGEN
!!!ARE: Europa, Mitteleuropa, Deutschland, Ober - Lahnkreis; Limburg
!!!SCT: E0201A
!!!YEM: Copyright 1995, estate of Helmut Schaffrath.
**kern
*ICvox
*Ivox
*M4/4
*k[]
*C:
{4g
=1
4e
4e
8e
8g
4a
=2
4g
4f
4d}
{8g
8a
=3
4g
4e
8g
8a
4g
=4
2e
4r}
{4g
=5
4e
4e
8e
8g
4a
=6
4g
4f
4d}
{4g
=7
4g
4e
8d
8e
4d
=8
2c
4r}
==
!!!AGN: erzaehlendes Volks - Lied, Tod, Toten - Sage, Grabesstimme
!!!ONB: ESAC (Essen Associative Code) Database: ERK1
!!!AMT: simple quadruple
!!!AIN: vox
!!!EED: Helmut Schaffrath
!!!EEV: 1.0
*-
